X: 18521
M: 9/8
L: 1/8
K: Bb
V: 1 clef=treble middle=B
f2d {e}dcd Bcd | f2d {e}dcd Bcd |\
e3- efe dcB | ABc Bcd c2F |\
f2d {e}dcd Bcd | f2d {e}dcd Bcd |
ede cde fdB | G[ge][fd] [ec][dB][cA] B2 |]\
V: 2 clef=bass middle=d
z |\
[B3B,3] [d'3b3] [d'3b3] | [B3B,3] [d'3b3] [d'3b3] |\
[f3F3] [c'3f3] [d'3b3] | [e'3c'3] [d'3b3] [c'2f2]z |\
[B3B,3] [d'3b3] [d'3b3] | [B3B,3] [d'3b3] [d'3b3] |\
[f3F3] [c'3f3] [d'3b3] | [c'3e3] [c'2f2][c'f] [d'2b2] |]
z |\
[f3F3] [e'3c'3f3] [e'3c'3f3] | B3 [d'3b3] [d'3b3] |\
ee'd' c'ba gfe | d2e d2B f2z |\
[f3F3] [e'3c'3f3] [e'3c'3f3] | B3 [d'3b3] [d'3b3] |\
[e6E6] [d3D3] | [e3E3] [f3F3] B2 |]

